X:165
T:A mi me gusta la gaita (MQ 028)
R:Xota
C:Tradicional
S:Msica Tradicional Asturiana, (C) Tello & Tito. Asturies, 2001.
S:http://pagina.de/MusTradAst <telloytito@asturies.org>
N:Como su nombre indica es una tpica pieza de gaita.
A:Asturies
Z:Manolo Quirs 028
M:3/4
L:1/4
Q:1/4=250
K:C
|: ccc|cBc|d2 B|GBB|c2 A|FAA|B2 G-|G3|
AAA|AAA|B2 G|EGG|A2 F|DFF|G2 E-|E3|
ccc|cde|d2 B|GBd|c2 A|FAc|B2 G-|G3|
AAA|ABc|B2 G|EGB|A2 F|DFF|G2 E-|E3 :|
